client/resources/iconsets/breeze/src/svg/16x16/icon_calendar_appt_newtime.svg

<svg xmlns="http://www.w3.org/2000/svg" width="16" height="16" viewBox="0 0 16 16">
 <path style="fill:#6d6d70"
       d="M 8 1 C 6.20855 1 4.4176312 1.6839313 3.0507812 3.0507812 C 0.31708125 5.7844812 0.31708125 10.215519 3.0507812 12.949219 C 5.7844812 15.682919 10.215519 15.682919 12.949219 12.949219 C 15.682919 10.215519 15.682919 5.7844812 12.949219 3.0507812 C 11.582369 1.6839313 9.79145 1 8 1 z M 7.9277344 3 A 5 5 0 0 1 11.535156 4.4648438 A 5 5 0 0 1 11.535156 11.535156 A 5 5 0 0 1 4.4648438 11.535156 A 5 5 0 0 1 4.4648438 4.4648438 A 5 5 0 0 1 7.9277344 3 z M 6.9960938 4 L 6.9960938 4.1328125 L 6.9960938 8.4140625 L 8.703125 10.121094 L 9.3183594 10.736328 L 9.4101562 10.828125 L 10.117188 10.121094 L 10.824219 9.4140625 L 10.730469 9.3203125 L 10.117188 8.7070312 L 8.9960938 7.5859375 L 8.9960938 4.1328125 L 8.9960938 4 L 6.9960938 4 z"
       />
</svg>

<svg xmlns="http://www.w3.org/2000/svg" width="16" height="16"><path d="M8 1c-1.791 0-3.582.684-4.949 2.051a7 7 0 0 0 0 9.898 7 7 0 0 0 9.898-9.898C11.582 1.684 9.791 1 8 1zm-.072 2a5 5 0 0 1 3.607 8.535 5 5 0 0 1-7.07 0A5 5 0 0 1 7.928 3zm-.932 1v.133 4.281l1.707 1.707.615.615.092.092.707-.707.707-.707-.094-.094-.613-.613-1.121-1.121V4.133 4h-2z" fill="#6d6d70"/></svg>
